_includes/icons/ios-film.svg

<svg fill="#666" height="50" viewBox="0 0 50 50" width="50" xmlns="http://www.w3.org/2000/svg"><path d="m4 4v42h42v-42zm2 2h4v3h-4zm6 0h26v38h-26zm28 0h4v3h-4zm-34 5h4v3h-4zm34 0h4v3h-4zm-34 5h4v3h-4zm34 0h4v3h-4zm-20.1875 1.09375c-.476562.089844-.820312.511719-.8125 1v13.8125c-.003906.359375.1875.691406.496094.871094.308594.183594.691406.183594 1.003906.003906l12-6.90625c.316406-.175781.515625-.511719.515625-.875s-.199219-.699219-.515625-.875l-12-6.90625c-.179687-.101562-.386719-.144531-.59375-.125-.03125 0-.0625 0-.09375 0zm1.1875 2.75 8.96875 5.15625-8.96875 5.15625zm-15 1.15625h4v3h-4zm34 0h4v3h-4zm-34 5h4v3h-4zm34 0h4v3h-4zm-34 5h4v3h-4zm34 0h4v3h-4zm-34 5h4v3h-4zm34 0h4v3h-4zm-34 5h4v3h-4zm34 0h4v3h-4z"/></svg>

<svg xmlns="http://www.w3.org/2000/svg" viewBox="0 0 50 50" width="50" height="50" fill="#666"><path d="M 4 4 L 4 46 L 46 46 L 46 4 Z M 6 6 L 10 6 L 10 9 L 6 9 Z M 12 6 L 38 6 L 38 44 L 12 44 Z M 40 6 L 44 6 L 44 9 L 40 9 Z M 6 11 L 10 11 L 10 14 L 6 14 Z M 40 11 L 44 11 L 44 14 L 40 14 Z M 6 16 L 10 16 L 10 19 L 6 19 Z M 40 16 L 44 16 L 44 19 L 40 19 Z M 19.8125 17.09375 C 19.335938 17.183594 18.992188 17.605469 19 18.09375 L 19 31.90625 C 18.996094 32.265625 19.1875 32.597656 19.496094 32.777344 C 19.804688 32.960938 20.1875 32.960938 20.5 32.78125 L 32.5 25.875 C 32.816406 25.699219 33.015625 25.363281 33.015625 25 C 33.015625 24.636719 32.816406 24.300781 32.5 24.125 L 20.5 17.21875 C 20.320313 17.117188 20.113281 17.074219 19.90625 17.09375 C 19.875 17.09375 19.84375 17.09375 19.8125 17.09375 Z M 21 19.84375 L 29.96875 25 L 21 30.15625 Z M 6 21 L 10 21 L 10 24 L 6 24 Z M 40 21 L 44 21 L 44 24 L 40 24 Z M 6 26 L 10 26 L 10 29 L 6 29 Z M 40 26 L 44 26 L 44 29 L 40 29 Z M 6 31 L 10 31 L 10 34 L 6 34 Z M 40 31 L 44 31 L 44 34 L 40 34 Z M 6 36 L 10 36 L 10 39 L 6 39 Z M 40 36 L 44 36 L 44 39 L 40 39 Z M 6 41 L 10 41 L 10 44 L 6 44 Z M 40 41 L 44 41 L 44 44 L 40 44 Z"/></svg>
